X:1
T:Ohimè, se tanto amate
T:Enrico Radesca di Foggia
T:Source : Secondo Libro delle canzonette, madrigali et arie alla Romana a due voci--- Milano---Herede di S.Tini et F Lomazzo---1606 Editor : André Vierendeels (15/11/16).
T:Notes : Original clefs C1, F4 "Per cantar e suonar con il chitarone o spinetta"
T:Ohimè, se tanto amate
T:©
T:©
T:©
T:©
C:Enrico Radesca di Foggia
Z:©
%%score 1 2
L:1/8
Q:1/4=106
M:4/4
K:C
V:1 treble nm="Soprano" snm="S"
V:2 bass nm="MusicXML Part"
V:1
 G8 | ^G2 G2 G2 G2 | A4 E4 | ^F2 F2 F2 FF | G8 | z4 e4- | e4 d2 c2 | d2 B2 d4- | d4 c2 B2 | %9
w: Ohi-|mè, se tan- to'a-|ma- te,|di sen- tir dir' ohi-|mè,|deh|_ per- che|fa- te, deh|_ per- che|
 A2 AA A2 G2 | A4 F4 | E8 | D8 :: z4 d4- | d4 c4 | d2 A2 A2 A2 | _B8 | A8 | B2 BB B2 A2 | ^G8 | %20
w: fa- te, chi di- ce'ohi-|mè mo-|ri-|re?|S'io|_ mo-|ro un sol po-|tre-|te,|lan- guid' e do- lo-|ros'|
 A4 ^F4- | F4 G4 | A8 | G8 | d8 | c2 B2 B2 ^c2 | d4 A2 A2 | A2 G2 A2 B2 | c2 d2 d2 d2 | c4 e4 | %30
w: ohi- mè|_ sen-|ti-|re:|Ma|se cor mio vor-|re- te, che|vi- ta hab- b'io|da voi'e voi da|me, ha-|
 dcdB cBcA | BABG AGAF | G3 A A2 A2 | G2 G2 FEFD | E2 Ee dcdB | cBcA BABG | A2 G2 A2 A2 | G4 G4 | %38
w: vre- te mil- l'e mil- l'e, mil- l'e,|mil- l'e mil- l'e mil- l'e mil- l'e|mil- l'e dol- ci'ohi-|mè, ha- vre- te mil- l'e|mil- l'e, ha- vre- te mil- l'e|mil- l'e mil- l'e mil- l'e mil- l'e|mil- le dol- ci'ohi-|mè, ha-|
 E2 E2 A4- | A2 G2 G2 G2 | G4 ^F4 | G8 :| %42
w: vre- te mil-|* m'e mil- l'e|dol- ci'ohi|mè.|
V:2
"^BC""^Bass" G,8 | E,8 | z2 ^C,2 C,2 C,2 | D,4 D,4 | B,,2 B,,2 B,,2 B,,B,, |"^B" C,8 | G,8- | %7
w: Ohi-|mè|se tan- to'a-|ma- te,|di sen- tir dir' ohi-|mè,|deh|
 G,4 F,2 E,2 | D,2 D,D, D,2 D,2 | D,4 _B,,4 | A,,8- |"^B" A,,8 | D,8 :: D,8 | _E,8 | %15
w: _ per- che|fa- te, chi di- ce'ohi-|mè mo-|ri-||re?|S'io|mo-|
 D,2 D,2 D,2 D,2 | G,,8 | D,8 |"^B" B,,2 B,,B,, B,,2 B,,2 | E,8 | ^C,4 D,4- | D,4 G,,4 | D,8 | %23
w: ro un sol po-|tre-|te,|lan- guid' e do- lo-|ros'|ohi- mè|_ sen-|ti-|
 G,,8 |"^B" G,8 | E,2 E,2 G,2 E,2 | D,4 D,2 D,2 | F,2 E,2 F,2 G,2 | A,2 F,2 G,2 G,2 | C,8 | %30
w: re:|Ma|se cor mio vor-|re- te, che|vi- ta hab- b'io|da voi'e voi da|me,|
"^B" z2 G,2 A,G,A,F, | G,F,G,E, F,E,F,D, | E,2 C,2 D,2 D,2 | G,,4 z2 D,2 | %34
w: ha- vre- te mil- l'e|mil- l'e mil- l'e mil- l'e mil- l'e|mil- le dol- ci'ohi|mè ha-|
"^B" C,B,,C,A,, B,,2 G,,G, | A,G,A,F, G,F,G,E, | D,2 B,,2 C,2 D,2 | G,,8 |"^B" C,4 A,,2 A,,2 | %39
w: vre- te mil- l'e mil- le, ha-|vre- te mil- l'e mil- l'e mil- l'e|mil- le dol- ci'ohi|mè,|ha- vre- te|
 B,,2 B,,2 B,,2 C,2 | D,4 D,4 | G,,8 :| %42
w: mil- l'e mil- le|dol- ci'ohi|mè.|

